svgs/sharp-light/user-clock.svg

<svg xmlns="http://www.w3.org/2000/svg" viewBox="0 0 640 512"><!--! Font Awesome Pro 6.6.0 by @fontawesome - https://fontawesome.com License - https://fontawesome.com/license (Commercial License) Copyright 2024 Fonticons, Inc. --><path d="M224 32a96 96 0 1 1 0 192 96 96 0 1 1 0-192zM87.6 336l235.3 0c2-11.1 5.1-21.8 9.1-32L64 304 9.8 480 0 512l33.5 0 361.3 0c-12.9-9.1-24.5-19.9-34.6-32L43.3 480 87.6 336zM352 128A128 128 0 1 0 96 128a128 128 0 1 0 256 0zM496 256a112 112 0 1 1 0 224 112 112 0 1 1 0-224zm0 256a144 144 0 1 0 0-288 144 144 0 1 0 0 288zm16-224l-32 0 0 16 0 64 0 16 16 0 48 0 16 0 0-32-16 0-32 0 0-48 0-16z"/></svg>

<svg xmlns="http://www.w3.org/2000/svg" viewBox="0 0 640 512"><!--! Font Awesome Pro 6.4.2 by @fontawesome - https://fontawesome.com License - https://fontawesome.com/license (Commercial License) Copyright 2023 Fonticons, Inc. --><path d="M224 32a96 96 0 1 1 0 192 96 96 0 1 1 0-192zM87.6 336H322.9c2-11.1 5.1-21.8 9.1-32H64L9.8 480 0 512H33.5 394.8c-12.9-9.1-24.5-19.9-34.6-32H43.3L87.6 336zM352 128A128 128 0 1 0 96 128a128 128 0 1 0 256 0zM496 256a112 112 0 1 1 0 224 112 112 0 1 1 0-224zm0 256a144 144 0 1 0 0-288 144 144 0 1 0 0 288zm16-224H480v16 64 16h16 48 16V352H544 512V304 288z"/></svg>
